X:19
T:First House In Connaught/Sailor's Bonnet
T:The First House in Connaught
M:C|
L:1/8
K:G
||:DG G/G/G AG G/G/G |BddB AGFE |DF F/F/F AF F/F/F |ABcA BGAF |
DG G/G/G AG G/G/G |BddB AGFA |defg agfd |cAFA G4:||:
gfga gfdf |g2 bg gede |fede fgag |g2 af bfaf |
gfga gfdf |g2 bg gfdc |defg agfd |cAFA G4 :||
T: Sailor's Bonnet, The
M: 4/4
L: 1/8
R: reel
K: Dmaj
||:A2 FA df f2|dfef dB B2| A2 FA dfec| dBAF ADD2 :|
|:a3 a afef|afef dB B2|fb b/b/b bafa|bfaf fee2|
bf3 afed|afef dB B2|A2 FA dfec |dBAF ADD2 :|

